!!!!SEGMENT: Fsc2016-Congratulamini_mihi.krn
!!!id: Fsc2016
!!!AGN: Motet
!!!SCT: Seay (1979)
!!!voices: 4
!!!COM: Costanzo Festa
!!!OTL: Congratulamini mihi
**kern	**kern	**kern	**kern
*part4	*part3	*part2	*part1
*staff4	*staff3	*staff2	*staff1
*I"Bassus	*I"Tenor	*I"Altus	*I"Superius
*I'B	*I'T	*I'A	*I'S
*clefF4	*clefGv2	*clefGv2	*clefG2
*k[b-]	*k[b-]	*k[b-]	*k[b-]
*F:	*F:	*F:	*F:
*M2/1	*M2/1	*M2/1	*M2/1
*met(C|)	*met(C|)	*met(C|)	*met(C|)
!!section: Prima pars: Congratulamini mihi
!!!OMD: Prima pars: Congratulamini mihi
=1	=1	=1	=1
0r	0r	0r	0cc
=2	=2	=2	=2
0r	0r	0g	1b-y
.	.	.	1b-y
=3	=3	=3	=3
0r	0r	1f	1.cc
.	.	1f	.
.	.	.	2cc
=4	=4	=4	=4
0r	0c	1.g	0cc
.	.	2g	.
=5	=5	=5	=5
0G	1B-y	0g	1r
.	1B-y	.	1dd
=6	=6	=6	=6
1F	2c	1r	1.ff
.	2c	.	.
1F	1c	1a	.
.	.	.	4ee
.	.	.	4dd
=7	=7	=7	=7
1.G	0r	1b-y	2ee-i
.	.	.	2dd
.	.	2g	2b-y
2G	.	[2b-y	[2dd
=8	=8	=8	=8
0G	0r	4b-]	4dd]
.	.	4a	4cc
.	.	4g	4b-y
.	.	4f	4a
.	.	1g	1b-y
=9	=9	=9	=9
1r	1d	1f	[0a
1D	[1f	1d	.
=10	=10	=10	=10
1.F	2f]	[0c	0a_
.	2f	.	.
.	1f	.	.
2F	.	.	.
=11	=11	=11	=11
1F	2r	0c]	0a]
.	2c	.	.
1F	[1f	.	.
=12	=12	=12	=12
1.B-y	2f]	0r	0r
.	2f	.	.
.	[1f	.	.
2B-y	.	.	.
=13	=13	=13	=13
1.B-y	2f]	0r	0r
.	2e	.	.
.	2d	.	.
2A	2c	.	.
=14	=14	=14	=14
2G	2B-y	0r	0r
2F	2.d	.	.
2E	.	.	.
.	4c	.	.
2F	2c	.	.
=15	=15	=15	=15
1D	1f	1r	1a
1C	1e	1c	[1cc
=16	=16	=16	=16
0r	0r	1.f	2cc]
.	.	.	2cc
.	.	.	1cc
.	.	2f	.
=17	=17	=17	=17
0r	0r	1f	1a
.	.	1c	[1cc
=18	=18	=18	=18
0r	0r	1.f	2cc]
.	.	.	2cc
.	.	.	[1cc
.	.	2f	.
=19	=19	=19	=19
0r	0r	1.f	2cc]
.	.	.	2b-y
.	.	.	2a
.	.	2e	2g
=20	=20	=20	=20
0r	0r	2d	2f
.	.	2c	2e
.	.	1f	2d
.	.	.	[2dd
=21	=21	=21	=21
0r	0r	2e	4dd]
.	.	.	4cc
.	.	4d	1cc
.	.	4c	.
.	.	1d	.
.	.	.	2bni
=22	=22	=22	=22
[0c	[0e	1c	1cc
.	.	1r	1r
=23	=23	=23	=23
1c]	1e]	1g	1cc
1F	1f	1a	1cc
=24	=24	=24	=24
1A	1c	1f	1cc
1G	1d	1g	1b-y
=25	=25	=25	=25
1G	1e	1g	1b-y
[1F	[1f	[1c	1a
=26	=26	=26	=26
1F]	1f]	2c]	1.cc
.	.	2B-y	.
1r	[1c	2A	.
.	.	2G	2b-y
=27	=27	=27	=27
0F	2c]	1F	2a
.	2B-y	.	2g
.	2A	1f	2f
.	4G	.	[2a
.	4F	.	.
=28	=28	=28	=28
1C	1c	2e	4a]
.	.	.	4g
.	.	2.e	2.g
1E	1G	.	.
.	.	4f	4a
.	.	4g	[2b-y
.	.	4e	.
=29	=29	=29	=29
1D	2.d	1f	4b-]
.	.	.	4a
.	.	.	1a
.	4c	.	.
1D	2A	1d	.
.	2B-y	.	4g
.	.	.	4f
=30	=30	=30	=30
[0C	2.c	0e	2a
.	.	.	2.g
.	4B-y	.	.
.	2G	.	.
.	.	.	4f
.	[2A	.	4e
.	.	.	4d
=31	=31	=31	=31
0C]	2A]	1r	2e
.	4G	.	1f
.	4F	.	.
.	1G	[1c	.
.	.	.	2e
=32	=32	=32	=32
1F	0F	1c]	0f
2r	.	[1f	.
[2F	.	.	.
=33	=33	=33	=33
2F]	2c	1f]	0r
2F	2c	.	.
[1B-y	1d	[1f	.
=34	=34	=34	=34
2B-]	2d	1f]	0r
2A	2c	.	.
2G	2B-y	[1d	.
2F	2A	.	.
=35	=35	=35	=35
1G	1B-y	1d]	0r
[1C	1G	[1e	.
=36	=36	=36	=36
1C]	1c	1e]	0r
2.G	2.B-y	1d	.
4F	4A	.	.
=37	=37	=37	=37
2D	2A	2d	0r
1BB-y	1B-y	2d	.
.	.	[1d	.
2C	4A	.	.
.	4G	.	.
=38	=38	=38	=38
2D	1B-y	1d]	0r
2E	.	.	.
[1F	[1A	[1c	.
=39	=39	=39	=39
1F]	1A]	0c_	0r
2r	2r	.	.
[2F	[2A	.	.
=40	=40	=40	=40
2F]	2A]	0c_	0r
2E	2G	.	.
2F	2A	.	.
2C	2G	.	.
=41	=41	=41	=41
2F	2A	0c_	0r
1F	1A	.	.
2E	2G	.	.
=42	=42	=42	=42
2F	2A	1c]	0r
2C	2G	.	.
1F	2A	2c	.
.	[2c	2f	.
=43	=43	=43	=43
1G	2c]	2e	0r
.	2Bni	2d	.
1C	1c	1e	.
=44	=44	=44	=44
2r	2r	2r	2r
1F	1c	1f	1a
2C	2c	2e	2g
=45	=45	=45	=45
2F	2c	2f	2a
2G	2B-y	2d	2g
2F	2c	2f	2a
[2F	[2c	[2f	[2a
=46	=46	=46	=46
2F]	2c]	2f]	2a]
2C	2c	2e	2g
2F	2c	2f	2a
2G	2B-y	2d	2b-y
=47	=47	=47	=47
2F	2A	2f	2cc
1D	1f	1a	2.dd
.	.	.	4cc
2E	2e	2g	[2cc
=48	=48	=48	=48
2F	2d	2f	2cc]
2G	2d	2d	2bni
1C	1c	1e	1cc
=49	=49	=49	=49
2r	1g	2.c	2r
1c	.	.	2.cc
.	.	4d	.
.	1c	2e	.
.	.	.	4b-y
[2F	.	[2f	4a
.	.	.	4g
=50	=50	=50	=50
2F]	1d	4f]	2a
.	.	4e	.
1G	.	4d	2.b-y
.	.	4c	.
.	1G	2d	.
.	.	.	4a
[2C	.	[2e	4g
.	.	.	4f
=51	=51	=51	=51
2C]	1g	4e]	2g
.	.	4c	.
1c	.	1e	2.cc
.	1c	.	.
.	.	.	4b-y
[2F	.	[2f	4a
.	.	.	4g
=52	=52	=52	=52
2F]	1d	4f]	2a
.	.	4e	.
1G	.	4d	2.b-y
.	.	4c	.
.	1G	2d	.
.	.	.	4a
[2C	.	[2e	4g
.	.	.	4f
=53	=53	=53	=53
2C]	1c	2e]	2g
1F	.	2f	2.a
.	2A	2c	.
.	.	.	4g
2BB-y	2B-y	2d	[2f
=54	=54	=54	=54
1C	1G	1c	2f]
.	.	.	2e
[1F	[1F	2.A	1f
.	.	4B-y	.
=55	=55	=55	=55
1F]	1F]	2c	1r
.	.	1d	.
1r	1r	.	[1f
.	.	2B-y	.
=56	=56	=56	=56
0r	0r	4B-y	1f]
.	.	4c	.
.	.	4d	.
.	.	4B-y	.
.	.	4f	1a
.	.	4e	.
.	.	4d	.
.	.	4c	.
=57	=57	=57	=57
0r	1r	2.d	1b-y
.	.	4c	.
.	[1F	2A	[1cc
.	.	[2c	.
=58	=58	=58	=58
0r	1F]	4c]	2cc]
.	.	4B-y	.
.	.	4A	2cc
.	.	4G	.
.	1A	1F	1cc
=59	=59	=59	=59
0r	1B-y	1r	1dd
.	[1c	[1F	[1ff
=60	=60	=60	=60
0r	2c]	1F]	1ff]
.	2c	.	.
.	1c	1A	2cc
.	.	.	2cc
=61	=61	=61	=61
1r	1f	1B-y	1dd
[1C	[1e	[1c	2g
.	.	.	4a
.	.	.	4g
=62	=62	=62	=62
1C]	1e]	2c]	2a
.	.	2c	2.g
1E	1g	1c	.
.	.	.	4f
.	.	.	4e
.	.	.	4d
=63	=63	=63	=63
1F	2.f	0r	2c
.	.	.	2cc
.	4e	.	.
[1G	4d	.	2b-y
.	4c	.	.
.	4B-y	.	[2dd
.	4A	.	.
=64	=64	=64	=64
2G]	2G	0r	4dd]
.	.	.	4cc
2G	2e-X	.	4b-y
.	.	.	4a
[1G	2e-i	.	4b-y
.	.	.	4g
.	4d	.	[2cc
.	4c	.	.
=65	=65	=65	=65
1G]	1d	1r	2cc]
.	.	.	2bni
1r	2c	1A	[1cc
.	[2A	.	.
=66	=66	=66	=66
1A	2A]	1c	0cc_
.	1c	.	.
1c	.	2A	.
.	2A	2F	.
=67	=67	=67	=67
2A	2F	1c	1cc]
2F	1c	.	.
1c	.	1F	1r
.	[2F	.	.
=68	=68	=68	=68
2F	4F]	1f	0r
.	4G	.	.
2F	2A	.	.
2.G	2G	2e	.
.	[2g	[2d	.
4F	.	.	.
=69	=69	=69	=69
2E	2g]	4d]	0r
.	.	4c	.
4D	4f	1c	.
4C	4e	.	.
1D	1f	.	.
.	.	2Bni	.
=70	=70	=70	=70
1C	2.e	4c	0cc
.	.	4d	.
.	.	4e	.
.	4d	4f	.
2C	2e	2g	.
[2F	[2f	[2a	.
=71	=71	=71	=71
2F]	2f]	2a]	[0cc
2F	4e	4g	.
.	4d	4f	.
2C	2e	2g	.
[2F	[2f	[2a	.
=72	=72	=72	=72
2F]	2f]	2a]	0cc]
2F	4e	4g	.
.	4d	4f	.
1C	2e	2g	.
.	[2c	[2G	.
=73	=73	=73	=73
1G	2c]	4G]	0b-y
.	.	4A	.
.	4B-y	4B-y	.
.	4A	4c	.
1G	2.B-y	2d	.
.	.	2e	.
.	4c	.	.
=74	=74	=74	=74
0F	2d	0f	0a
.	2.c	.	.
.	4B-y	.	.
.	4A	.	.
.	4G	.	.
=75	=75	=75	=75
2r	2F	1a	1cc
2F	2f	.	.
2G	2d	2g	2b-y
2A	2c	2f	2a
=76	=76	=76	=76
2A	2d	2f	2a
2G	2B-y	2e	2b-y
[1F	[1c	[1f	[1a
=77	=77	=77	=77
1F]	0c_	1f]	1a]
1F	.	1r	[1cc
=78	=78	=78	=78
2C	1c]	0r	1cc]
2F	.	.	.
2E	1r	.	1cc
[2F	.	.	.
=79	=79	=79	=79
4F]	0r	0r	1cc
4G	.	.	.
4A	.	.	.
4F	.	.	.
2.G	.	.	1b-y
8FL	.	.	.
8EJ	.	.	.
=80	=80	=80	=80
4F	0r	0r	1a
4G	.	.	.
4A	.	.	.
4B-y	.	.	.
2c	.	.	2g
[2d	.	.	[2f
=81	=81	=81	=81
4d]	0r	0r	4f]
4c	.	.	4e
1c	.	.	4d
.	.	.	4c
.	.	.	1d
2Bni	.	.	.
=82	=82	=82	=82
1c	1r	1r	0c
1C	2r	2r	.
.	2g	2e	.
=83	=83	=83	=83
0r	2.f	2.a	0r
.	4e	4g	.
.	2d	2f	.
.	2c	2e	.
=84	=84	=84	=84
1r	2c	2d	1r
.	2Bni	2d	.
2r	2c	2c	2r
2F	2c	2f	2cc
=85	=85	=85	=85
2.BB-y	2.d	2.f	2.b-y
4BB-y	4c	4e	4a
2BB-y	2B-y	2d	2g
2BB-y	2A	2d	2f
=86	=86	=86	=86
2C	2G	2c	2f
2C	2G	2c	2e
1F	1F	1c	1f
=87	=87	=87	=87
1r	1r	1r	1r
[1F	[1c	[1f	[1a
=88	=88	=88	=88
2F]	2c]	2f]	2a]
2F	2c	2f	2a
1F	1c	1f	1a
=89	=89	=89	=89
1F	1c	1f	1a
[1F	[1c	[1f	[1a
=90	=90	=90	=90
1F]	0c_	1f]	1a]
[1C	.	[1e	[1g
=91	=91	=91	=91
1C]	1c]	0e_	1g]
1r	2A	.	[1cc
.	2A	.	.
=92	=92	=92	=92
2r	1c	0e_	0cc_
2A	.	.	.
1c	2A	.	.
.	2A	.	.
=93	=93	=93	=93
2A	2.c	1e]	1cc]
2A	.	.	.
.	4B-y	.	.
2.c	2A	1r	1r
.	2G	.	.
4B-y	.	.	.
=94	=94	=94	=94
2A	2F	0r	0r
2G	2e-X	.	.
2F	2d	.	.
2E	[2c	.	.
=95	=95	=95	=95
1D	4c]	0r	1r
.	8BniL	.	.
.	8AJ	.	.
.	2Bni	.	.
[1C	[1c	.	2r
.	.	.	2e
=96	=96	=96	=96
0C_	0c_	2r	1g
.	.	2e	.
.	.	1g	2e
.	.	.	2e
=97	=97	=97	=97
1C]	1c]	2e	2.g
.	.	2e	.
.	.	.	4f
1r	1r	2.g	2e
.	.	.	2d
.	.	4f	.
=98	=98	=98	=98
0r	0r	2e	2c
.	.	2d	2b-y
.	.	2c	2a
.	.	2B-y	[2g
=99	=99	=99	=99
0r	0r	1A	4g]
.	.	.	8f#iL
.	.	.	8eJ
.	.	.	2f#i
.	.	[1G	[1g
=100	=100	=100	=100
1G	1r	1G]	1g]
1B-y	1d	1r	1r
=101	=101	=101	=101
1B-y	0f	1r	0r
1r	.	1d	.
=102	=102	=102	=102
1.B-y	2.f	1f	0r
.	4e	.	.
.	2d	1f	.
2F	2c	.	.
=103	=103	=103	=103
1G	1B-y	1r	1dd
[1D	1A	[1a	1ff
=104	=104	=104	=104
1D]	[0f	1a]	1ff
[1B-y	.	[1b-y	2.ff
.	.	.	4ee
=105	=105	=105	=105
2B-]	1f]	2b-]	2dd
2F	.	2a	2cc
1G	[1d	1g	1b-y
=106	=106	=106	=106
2D	2d]	0f	0a
2.F	4c	.	.
.	4B-y	.	.
.	4A	.	.
4E	4G	.	.
4D	[2c	.	.
4C	.	.	.
=107	=107	=107	=107
1D	2c]	1r	1r
.	2Bni	.	.
2C	2c	2r	[1cc
[2F	[2A	[2f	.
=108	=108	=108	=108
2F]	2A]	2f]	2cc]
2C	2G	2e	2cc
2F	2A	2f	2cc
2C	2G	2e	2cc
=109	=109	=109	=109
2F	2A	2f	2cc
2E	2G	2g	2cc
2F	2A	2c	2cc
2BB-y	2B-y	[2f	2dd
=110	=110	=110	=110
1C	1G	2f]	1cc
.	.	2e	.
1c	[1F	1f	1a
=111	=111	=111	=111
2r	1F]	2r	2r
1c	.	2a	2.cc
.	2r	2g	.
.	.	.	4b-y
[2F	[2c	[2f	4a
.	.	.	4g
=112	=112	=112	=112
2F]	2c]	4f]	2a
.	.	4e	.
1G	1B-y	4d	2.b-y
.	.	4c	.
.	.	2d	.
.	.	.	4a
[2C	[2c	[2e	4g
.	.	.	4f
=113	=113	=113	=113
2C]	2c]	2e]	2g
2c	2F	1f	2a
2F	2c	.	2a
2G	2B-y	2d	2b-y
=114	=114	=114	=114
2C	2c	2e	2g
2c	2F	2f	2a
2F	2c	2f	2a
2G	2B-y	2d	2b-y
=115	=115	=115	=115
2C	1c	2e	2g
1F	.	2f	2.a
.	2A	2c	.
.	.	.	4g
2BB-y	2B-y	2d	[2f
=116	=116	=116	=116
1C	1G	1c	2f]
.	.	.	2e
[1Fl	[1Fl	[1Al	[1fl
=117	=117	=117	=117
00F]	00F]	00A]	00f]
==	==	==	==
*-	*-	*-	*-
!!!system-decoration: [*]
!!!RDF**kern: i = editorial accidental
!!!RDF**kern: l = terminal long
!!!ENC: Benjamin Ory
!!!END: 2021/4/21
!!!EED: Benjamin Ory
!!!EEV: 2021/05/21
!!!YEC: Copyright 2021 Benjamin Ory, All Rights Reserved
!!!ONB: Translated from MusicXML on 2021/05/21
